svgs/sharp-light/input-numeric.svg

<svg xmlns="http://www.w3.org/2000/svg" viewBox="0 0 640 512"><!--! Font Awesome Pro 6.6.0 by @fontawesome - https://fontawesome.com License - https://fontawesome.com/license (Commercial License) Copyright 2024 Fonticons, Inc. --><path d="M608 96l0 320L32 416 32 96l576 0zM32 64L0 64 0 96 0 416l0 32 32 0 576 0 32 0 0-32 0-320 0-32-32 0L32 64zm64 96l0 32 16 0 16 0 0 128-16 0-16 0 0 32 16 0 64 0 16 0 0-32-16 0-16 0 0-144 0-16-16 0-32 0-16 0zm169.9 40c11.4-9.7 28.5-8.5 38.3 2.8c9.7 11.1 8.8 28-2 38l-73 67.4L224 313l0 7 0 16 0 16 16 0 96 0 16 0 0-32-16 0-72.4 0 60.3-55.6c19.5-18 24.3-46.3 13.3-69.2l1.6-1.4-10.5-12c-21.4-24.5-58.5-27.1-83.2-6l-23.5 20.1 20.8 24.3L265.9 200z"/></svg>

<svg xmlns="http://www.w3.org/2000/svg" viewBox="0 0 640 512"><!--! Font Awesome Pro 6.4.2 by @fontawesome - https://fontawesome.com License - https://fontawesome.com/license (Commercial License) Copyright 2023 Fonticons, Inc. --><path d="M608 96V416H32V96H608zM32 64H0V96 416v32H32 608h32V416 96 64H608 32zm64 96v32h16 16V320H112 96v32h16 64 16V320H176 160V176 160H144 112 96zm169.9 40c11.4-9.7 28.5-8.5 38.3 2.8c9.7 11.1 8.8 28-2 38l-73 67.4L224 313v7 16 16h16 96 16V320H336 263.6l60.3-55.6c23.6-21.8 25.6-58.4 4.4-82.6c-21.4-24.5-58.5-27.1-83.2-6l-23.5 20.1 20.8 24.3L265.9 200z"/></svg>
